X:3
T:Traditional Strathspey
R:strathspey
D:Laments and Merry Melodies, Theresa Morrison
Q:288
L:1/8
M:C
K:D
A>GF>E D/D/D d>e|f2 e<d f<aa>B|A>GF>E D/D/D d>e|f>ed<c B2 Bd:|
||A>Bd>e f>ed>c|B/B/B g>B B>AABd>e f<ae>d|B/B/B g>f e2 e<f|
A>Bd>e f>ed>c|B/B/B g>B B<AABd>e f<ae>d|B<dc>e d>ef>d|]
